X: 31247
T: Paddy Fahey's
R: jig
M: 6/8
K: Gmajor
B2 G c2 A|d2 g fdc|Bdg B/c/dB|cAG FGA|
B2 G c2 A|d2 g fdc|B/c/dB cAF|AGF G2 A||
B2 G c2 A|d2 g fdc|Bdg B/c/dB|cAG FGA|
B2 G c2 A|d2 g fdc|B/c/dB cAF|AGF G3||
g2 a bag|a2 g fdc|B2 G c2 A|dge fdc|
dgg bag|a2 g fdc|B2 G cAF|DGF G3||
g2 a bag|a2 g fdc|B2 G c2 A|dge fdc|
B/c/dG ABc|dge fdc|BAG cAF|DGF G2 A||

